X: 91
M: C|
L: 1/8
K: G
d4 c2B2 | A2G2 c2B2 | A2G2 F2E2 | D4 GABc | d4 c2B2 | A2G2 c2B2 | A2G2 A2F2 | G4 :: B2G2 | A2d2 c2B2 | A2G2 B2G2 |


